!!!COM: Bohuslav (Jan) Martinů
!!!OTL: [T476_Mau-w76p22h1m6-13]
**kern	**dynam	**kern	**dynam	**kern	**dynam	**kern	**dynam
*grp:A	*grp:A	*grp:B	*grp:B	*grp:B	*grp:B	*grp:B	*grp:B
*part3	*part3	*part3	*part3	*part2	*part2	*part1	*part1
*staff4	*staff4	*staff3	*staff3	*staff2	*staff2	*staff1	*staff1
*I"Piano	*I"Piano	*I"Piano	*I"Piano	*I"Violoncello	*I"Violoncello	*I"Flute	*I"Flute
*I'Pno.	*	*	*	*I'Vc.	*	*I'Fl.	*
*clefF4	*	*clefG2	*	*clefF4	*	*clefG2	*
*k[]	*	*k[]	*	*k[]	*	*k[]	*
*C:	*	*C:	*	*C:	*	*C:	*
*M2/4	*	*M2/4	*	*M2/4	*	*M2/4	*
=1	=1	=1	=1	=1	=1	=1	=1
!	!	!	!LO:DY:ed=brack	!	!LO:DY:ed=brack	!	!LO:DY:ed=brack
8F'	.	8ryy	4ryy	16ryy	4ryy	16ryy	4ryy
.	.	.	.	16ryy	.	16ryy	.
8r	.	16ryy	.	4ryy	.	4ryy	.
.	.	16ryy	.	.	.	.	.
8r	.	16ryy	.	.	.	.	.
.	.	16ryy	.	.	.	.	.
(16BB-XLL	.	16ryy	.	8ryy	.	8ryy	.
16DJJ)	.	16ryy	.	.	.	.	.
=2	=2	=2	=2	=2	=2	=2	=2
8F'	.	16ryy	.	8ryy	.	8ryy	.
.	.	16ryy	.	.	.	.	.
8r	.	16ryy	.	16ryy	.	16ryy	.
.	.	16ryy	.	16ryy	.	16ryy	.
8r	.	16ryy	.	4ryy	.	4ryy	.
.	.	16ryy	.	.	.	.	.
(16BB-XLL	.	16ryy	.	.	.	.	.
16DJJ)	.	16ryy	.	.	.	.	.
=3	=3	=3	=3	=3	=3	=3	=3
8F'	.	16ryy	.	8ryy	.	8ryy	.
.	.	16ryy	.	.	.	.	.
8r	.	16ryy	.	8ryy	.	8ryy	.
.	.	16ryy	.	.	.	.	.
8r	.	16ryy	.	16ryy	.	16ryy	.
.	.	16ryy	.	16ryy	.	16ryy	.
(16BB-XLL	.	16ryy	.	8ryy	.	8ryy	.
16DJJ)	.	16ryy	.	.	.	.	.
=4	=4	=4	=4	=4	=4	=4	=4
8F'	.	16ryy	.	8ryy	.	8ryy	.
.	.	16ryy	.	.	.	.	.
8r	.	16ryy	.	8ryy	.	8ryy	.
.	.	16ryy	.	.	.	.	.
8r	.	8ryy	.	4ryy	.	4ryy	.
(16B-XLL	.	8ryy	.	.	.	.	.
16dJJ	.	.	.	.	.	.	.
=5	=5	=5	=5	=5	=5	=5	=5
8f')	.	8ryy	.	8ryy	.	4ryy	4ryy
8r	.	8ryy	4ryy	16ryy	4ryy	.	.
.	.	.	.	16ryy	.	.	.
8r	.	8ryy	.	16ryy	.	8ryy	.
.	.	.	.	16ryy	.	.	.
(16E-XLL	mf	8ryy	.	16ryy	.	8ryy	.
16GJJ	.	.	.	16ryy	.	.	.
=6	=6	=6	=6	=6	=6	=6	=6
8B-X')	.	16ryy	.	16ryy	.	16ryy	.
.	.	16ryy	.	16ryy	.	16ryy	.
8r	.	4ryy	.	16ryy	.	4ryy	.
.	.	.	.	16ryy	.	.	.
8r	.	.	.	16ryy	.	.	.
.	.	.	.	16ryy	.	.	.
(16E-XLL	.	8ryy	.	16ryy	.	8ryy	.
16GJJ	.	.	.	16ryy	.	.	.
=7	=7	=7	=7	=7	=7	=7	=7
8B-X')	.	8ryy	.	16ryy	.	8ryy	.
.	.	.	.	16ryy	.	.	.
8r	.	16ryy	.	16ryy	.	16ryy	.
.	.	16ryy	.	16ryy	.	16ryy	.
8r	.	4ryy	.	16ryy	.	4ryy	.
.	.	.	.	16ryy	.	.	.
(16E-XLL	.	.	.	16ryy	.	.	.
16GJJ	.	.	.	16ryy	.	.	.
=8	=8	=8	=8	=8	=8	=8	=8
8B-X')	.	8ryy	.	16ryy	.	8ryy	.
.	.	.	.	16ryy	.	.	.
8r	.	8ryy	.	16ryy	.	8ryy	.
.	.	.	.	16ryy	.	.	.
8r	.	16ryy	.	16ryy	.	16ryy	.
.	.	16ryy	.	16ryy	.	16ryy	.
(16E-XLL	.	8ryy	.	16ryy	.	8ryy	.
16GJJ)	.	.	.	16ryy	.	.	.
=	=	=	=	=	=	=	=
*-	*-	*-	*-	*-	*-	*-	*-
!!!system-decoration: s1,s2[({(s3,s4)})]
